Origami/48x48/apps/zandronum.svg

<svg width="48" height="48" version="1.1" viewBox="0 0 48 48" xmlns="http://www.w3.org/2000/svg">
 <path d="m6.0051463 17.386719v7.613281c0 1.68993-0.1356616 4.599008 0.9860461 5.953125 1.8657292 3.101299 5.8638356 9.812574 7.3982756 12.884766 0.500778 0.918876 1.612219 1.162108 3.014762 1.162109h6.59577 6.59577c1.402544-1e-6 2.513984-0.243233 3.014763-1.162109 1.534439-3.072192 5.532545-9.783467 7.398275-12.884766 1.121707-1.354117 0.986046-4.263195 0.986046-5.953125v-7.613281c0-6.386719-7.997713-12.386719-17.994854-12.386719s-17.994854 6-17.994854 12.386719z" style="opacity:.2"/>
 <path d="m6.0051463 16.386719v7.613281c0 1.68993-0.1356616 4.599008 0.9860461 5.953125 1.8657292 3.101299 5.8638356 9.812574 7.3982756 12.884766 0.500778 0.918876 1.612219 1.162108 3.014762 1.162109h6.59577 6.59577c1.402544-1e-6 2.513984-0.243233 3.014763-1.162109 1.534439-3.072192 5.532545-9.783467 7.398275-12.884766 1.121707-1.354117 0.986046-4.263195 0.986046-5.953125v-7.613281c0-6.386719-7.997713-12.386719-17.994854-12.386719s-17.994854 6-17.994854 12.386719z" style="fill:#6e6e6e"/>
 <path d="m8.5195312 22.947266c-1.166051 0.008005-2.3324102 0.025345-2.5136718 0.052734v1c0 1.68993-0.1373327 4.599008 0.984375 5.953125 1.8657292 3.101299 5.8639976 9.812574 7.3984376 12.884766 0.500778 0.918876 1.613082 1.162108 3.015625 1.162109h6.595703 6.595703c1.402544-1e-6 2.514846-0.243233 3.015625-1.162109 1.534439-3.072192 5.532708-9.783467 7.398438-12.884766 1.121707-1.354117 0.984375-4.263195 0.984375-5.953125v-1c-0.209708 1.2e-5 -4.38501 0.0058-4.56836 0.01563-2.732349 0.146411-3.75272 1.389955-5.425781 3.98437-1.569829 2.689285-1.719654 7.044652-2.503906 9-1.103764-3.773837-0.496094-11-5.496094-11s-4.39233 7.226163-5.496094 11c-0.784252-1.955348-0.934077-6.310715-2.503906-9-1.08677-1.826616-2.602345-3.898695-4.986328-4.048828-0.160745-0.01012-1.3253728-0.01193-2.4941408-0.0039z" style="opacity:.2"/>
 <path d="m10 22v2c2.98007-0.462842 4.766675 1.927058 6 4 1.569829 2.689285 1.719654 7.044652 2.503906 9 1.103764-3.773837 0.496094-11 5.496094-11s4.39233 7.226163 5.496094 11c0.784252-1.955348 0.934077-6.310715 2.503906-9 1.785473-2.768732 2.827095-4 6-4v-2h-14z" style="opacity:.2"/>
 <path d="m10 21v2c2.98007-0.462842 4.766675 1.927058 6 4 1.569829 2.689285 1.719654 7.044652 2.503906 9 1.103764-3.773837 0.496094-11 5.496094-11s4.39233 7.226163 5.496094 11c0.784252-1.955348 0.934077-6.310715 2.503906-9 1.785473-2.768732 2.827095-4 6-4v-2h-14z" style="fill:#7ac4eb"/>
 <path d="m24 4c-9.997141 0-17.994141 5.9999998-17.994141 12.386719v1c0-6.386719 7.9969996-12.386719 17.994141-12.386719s17.994141 6 17.994141 12.386719v-1c0-6.3867192-7.997-12.386719-17.994141-12.386719zm-17.994141 21.84375c0 0.440378-0.0062261 0.83532 0 1.207031 4.139e-4 -0.072749 0-0.131892 0-0.207031v-1zm35.988282 0v1c0 0.075139-4.14e-4 0.134282 0 0.207031 0.006226-0.371711 0-0.766653 0-1.207031z" style="fill:#ffffff;opacity:.1"/>
 <path d="m10 21v1h14 14v-1h-14-14z" style="fill:#ffffff;opacity:.1"/>
 <path d="m17.404297 44h6.595703 6.595703l-1.099609-8c-1.103764-3.773837-0.496094-11-5.496094-11s-4.39233 7.226163-5.496094 11z" style="opacity:.15"/>
</svg>

<svg xmlns="http://www.w3.org/2000/svg" width="48" height="48" version="1.1" viewBox="0 0 48 48">
 <path style="opacity:0.2" d="m 6.0051463,17.386719 0,7.613281 c 0,1.68993 -0.1356616,4.599008 0.9860461,5.953125 1.8657292,3.101299 5.8638356,9.812574 7.3982756,12.884766 C 14.890246,44.756767 16.001687,44.999999 17.40423,45 L 24,45 l 6.59577,0 c 1.402544,-10e-7 2.513984,-0.243233 3.014763,-1.162109 1.534439,-3.072192 5.532545,-9.783467 7.398275,-12.884766 C 42.130515,29.599008 41.994854,26.68993 41.994854,25 l 0,-7.613281 C 41.994854,11 33.997141,5 24,5 14.002859,5 6.0051463,11 6.0051463,17.386719 Z"/>
 <path style="fill:#6e6e6e" d="m 6.0051463,16.386719 0,7.613281 c 0,1.68993 -0.1356616,4.599008 0.9860461,5.953125 1.8657292,3.101299 5.8638356,9.812574 7.3982756,12.884766 C 14.890246,43.756767 16.001687,43.999999 17.40423,44 L 24,44 l 6.59577,0 c 1.402544,-10e-7 2.513984,-0.243233 3.014763,-1.162109 1.534439,-3.072192 5.532545,-9.783467 7.398275,-12.884766 C 42.130515,28.599008 41.994854,25.68993 41.994854,24 l 0,-7.613281 C 41.994854,10 33.997141,4 24,4 14.002859,4 6.0051463,10 6.0051463,16.386719 Z"/>
 <path style="opacity:0.2" d="M 8.5195312,22.947266 C 7.3534802,22.955271 6.187121,22.972611 6.0058594,23 l 0,1 c 0,1.68993 -0.1373327,4.599008 0.984375,5.953125 1.8657292,3.101299 5.8639976,9.812574 7.3984376,12.884766 C 14.88945,43.756767 16.001754,43.999999 17.404297,44 L 24,44 l 6.595703,0 c 1.402544,-10e-7 2.514846,-0.243233 3.015625,-1.162109 1.534439,-3.072192 5.532708,-9.783467 7.398438,-12.884766 C 42.131473,28.599008 41.994141,25.68993 41.994141,24 l 0,-1 c -0.209708,1.2e-5 -4.38501,0.0058 -4.56836,0.01563 C 34.693432,23.162041 33.673061,24.405585 32,27 30.430171,29.689285 30.280346,34.044652 29.496094,36 28.39233,32.226163 29,25 24,25 19,25 19.60767,32.226163 18.503906,36 17.719654,34.044652 17.569829,29.689285 16,27 c -1.08677,-1.826616 -2.602345,-3.898695 -4.986328,-4.048828 -0.160745,-0.01012 -1.3253728,-0.01193 -2.4941408,-0.0039 z"/>
 <path style="opacity:0.2" d="m 10,22 0,2 c 2.98007,-0.462842 4.766675,1.927058 6,4 1.569829,2.689285 1.719654,7.044652 2.503906,9 C 19.60767,33.226163 19,26 24,26 c 5,0 4.39233,7.226163 5.496094,11 0.784252,-1.955348 0.934077,-6.310715 2.503906,-9 1.785473,-2.768732 2.827095,-4 6,-4 l 0,-2 -14,0 z"/>
 <path style="fill:#7ac4eb" d="m 10,21 0,2 c 2.98007,-0.462842 4.766675,1.927058 6,4 1.569829,2.689285 1.719654,7.044652 2.503906,9 C 19.60767,32.226163 19,25 24,25 c 5,0 4.39233,7.226163 5.496094,11 0.784252,-1.955348 0.934077,-6.310715 2.503906,-9 1.785473,-2.768732 2.827095,-4 6,-4 l 0,-2 -14,0 z"/>
 <path style="opacity:0.1;fill:#ffffff" d="M 24 4 C 14.002859 4 6.0058594 9.9999998 6.0058594 16.386719 L 6.0058594 17.386719 C 6.0058594 11 14.002859 5 24 5 C 33.997141 5 41.994141 11 41.994141 17.386719 L 41.994141 16.386719 C 41.994141 9.9999998 33.997141 4 24 4 z M 6.0058594 25.84375 C 6.0058594 26.284128 5.9996333 26.67907 6.0058594 27.050781 C 6.0062733 26.978032 6.0058594 26.918889 6.0058594 26.84375 L 6.0058594 25.84375 z M 41.994141 25.84375 L 41.994141 26.84375 C 41.994141 26.918889 41.993727 26.978032 41.994141 27.050781 C 42.000367 26.67907 41.994141 26.284128 41.994141 25.84375 z"/>
 <path style="opacity:0.1;fill:#ffffff" d="M 10 21 L 10 22 L 24 22 L 38 22 L 38 21 L 24 21 L 10 21 z"/>
 <path style="opacity:0.15" d="M 17.404297,44 24,44 30.595703,44 29.496094,36 C 28.39233,32.226163 29,25 24,25 c -5,0 -4.39233,7.226163 -5.496094,11 z"/>
</svg>
